small/extra/apps/standard/googleplaymovies.svg

<?xml version="1.0" encoding="UTF-8" standalone="no"?>
<!-- Created with Inkscape (http://www.inkscape.org/) -->

<svg
   xmlns:dc="http://purl.org/dc/elements/1.1/"
   xmlns:cc="http://creativecommons.org/ns#"
   xmlns:rdf="http://www.w3.org/1999/02/22-rdf-syntax-ns#"
   xmlns:svg="http://www.w3.org/2000/svg"
   xmlns="http://www.w3.org/2000/svg"
   xmlns:sodipodi="http://sodipodi.sourceforge.net/DTD/sodipodi-0.dtd"
   xmlns:inkscape="http://www.inkscape.org/namespaces/inkscape"
   version="1.1"
   width="100%"
   height="100%"
   viewBox="0 0 512 512"
   id="svg2"
   inkscape:version="0.91+devel r13804 custom"
   sodipodi:docname="googleplaymovies.svg">
  <sodipodi:namedview
     pagecolor="#ffffff"
     bordercolor="#666666"
     borderopacity="1"
     objecttolerance="10"
     gridtolerance="10"
     guidetolerance="10"
     inkscape:pageopacity="0"
     inkscape:pageshadow="2"
     inkscape:window-width="1366"
     inkscape:window-height="709"
     id="namedview83"
     showgrid="false"
     inkscape:zoom="0.4609375"
     inkscape:cx="-8.6779661"
     inkscape:cy="237.55932"
     inkscape:window-x="-2"
     inkscape:window-y="-3"
     inkscape:window-maximized="1"
     inkscape:current-layer="svg2" />
  <metadata
     id="metadata10">
    <rdf:RDF>
      <cc:Work
         rdf:about="">
        <dc:format>image/svg+xml</dc:format>
        <dc:type
           rdf:resource="http://purl.org/dc/dcmitype/StillImage" />
        <dc:title />
      </cc:Work>
    </rdf:RDF>
  </metadata>
  <defs
     id="defs8" />
  <path
     d="M 26,0 C 11.602648,0 0,11.602648 0,26 l 0,460 c 0,14.39735 11.602648,26 26,26 l 460,0 c 14.39735,0 26,-11.60265 26,-26 L 512,26 C 512,11.602648 500.39735,0 486,0 L 26,0 z"
     inkscape:connector-curvature="0"
     id="rect2986"
     style="fill:#bc4242;fill-opacity:1;stroke:none" />
  <text
     x="-351.68549"
     y="91.57193"
     id="text20"
     style="font-size:129.22999573px;line-height:125%;letter-spacing:0;word-spacing:0;font-family:Gentium Book Basic">
    <tspan
       x="-351.68549"
       y="91.57193"
       id="tspan22" />
  </text>
  <text
     x="109.44035"
     y="18.313808"
     transform="scale(4.0128205,0.24920128)"
     id="text24"
     style="font-size:46.95375824px;text-anchor:middle;font-family:Arial" />
  <text
     x="229.58453"
     y="11.57193"
     id="text26"
     style="font-size:129.22999573px;line-height:125%;letter-spacing:0;word-spacing:0;font-family:Gentium Book Basic">
    <tspan
       x="229.58453"
       y="11.57193"
       id="tspan28" />
  </text>
  <text
     x="254.28963"
     y="-302.72433"
     transform="scale(4.0128205,0.24920128)"
     id="text30"
     style="font-size:46.95375824px;text-anchor:middle;font-family:Arial" />
  <text
     x="-841.99548"
     y="-169.68805"
     id="text32"
     style="font-size:129.22999573px;line-height:125%;letter-spacing:0;word-spacing:0;font-family:Gentium Book Basic">
    <tspan
       x="-841.99548"
       y="-169.68805"
       id="tspan34" />
  </text>
  <text
     x="-12.749008"
     y="-1030.0707"
     transform="scale(4.0128205,0.24920128)"
     id="text36"
     style="font-size:46.95375824px;text-anchor:middle;font-family:Arial" />
  <text
     x="256.0545"
     y="-386.15805"
     id="text38"
     style="font-size:129.22999573px;line-height:125%;letter-spacing:0;word-spacing:0;font-family:Gentium Book Basic">
    <tspan
       x="256.0545"
       y="-386.15805"
       id="tspan40" />
  </text>
  <text
     x="260.88962"
     y="-1898.7463"
     transform="scale(4.0128205,0.24920128)"
     id="text42"
     style="font-size:46.95375824px;text-anchor:middle;font-family:Arial" />
  <text
     x="837.32452"
     y="-466.15802"
     id="text44"
     style="font-size:129.22999573px;line-height:125%;letter-spacing:0;word-spacing:0;font-family:Gentium Book Basic">
    <tspan
       x="837.32452"
       y="-466.15802"
       id="tspan46" />
  </text>
  <text
     x="405.73886"
     y="-2219.7747"
     transform="scale(4.0128205,0.24920128)"
     id="text48"
     style="font-size:46.95375824px;text-anchor:middle;font-family:Arial" />
  <text
     x="448.20453"
     y="-938.55804"
     id="text50"
     style="font-size:129.22999573px;line-height:125%;letter-spacing:0;word-spacing:0;font-family:Gentium Book Basic">
    <tspan
       x="448.20453"
       y="-938.55804"
       id="tspan52" />
  </text>
  <text
     x="308.76932"
     y="-4115.4248"
     transform="scale(4.0128205,0.24920128)"
     id="text54"
     style="font-size:46.95375824px;text-anchor:middle;font-family:Arial" />
  <text
     x="1029.4646"
     y="-1018.5681"
     id="text56"
     style="font-size:129.22999573px;line-height:125%;letter-spacing:0;word-spacing:0;font-family:Gentium Book Basic">
    <tspan
       x="1029.4646"
       y="-1018.5681"
       id="tspan58" />
  </text>
  <text
     x="453.61862"
     y="-4436.4634"
     transform="scale(4.0128205,0.24920128)"
     id="text60"
     style="font-size:46.95375824px;text-anchor:middle;font-family:Arial" />
  <text
     x="-803.33551"
     y="396.15204"
     id="text62"
     style="font-size:208.33000183px;line-height:125%;letter-spacing:0;word-spacing:0;font-family:Gentium Book Basic">
    <tspan
       x="-803.33551"
       y="396.15204"
       id="tspan64" />
  </text>
  <path
     style="fill:#000000;opacity:0.25"
     d="M 95.632812 67.267578 C 65.350262 67.267578 41 91.656297 41 121.94141 L 41 390.05859 C 41 405.20996 47.095905 418.88692 56.980469 428.77148 L 140.20898 512 L 486 512 C 500.39735 512 512 500.39735 512 486 L 512 140.24219 L 455.01953 83.261719 C 445.13687 73.379062 431.4684 67.28125 416.32617 67.28125 L 95.646484 67.28125 L 95.632812 67.267578 z "
     id="path3331" />
  <path
     d="M 95.6336,67.268105 C 65.35105,67.268105 41,91.656375 41,121.94148 v 268.11704 c 0,30.28254 24.34976,54.67337 54.6336,54.67337 H 416.32662 C 446.60915,444.73189 471,420.34362 471,390.05852 V 121.95432 C 471,91.671775 446.61173,67.280935 416.32662,67.280935 H 95.6336 m -5.3757,36.943115 h 56.64499 v 45.28517 H 90.27074 v -45.28517 m 274.85589,0 h 56.64499 v 45.28517 H 365.13947 V 104.22405 M 90.29641,168.76312 h 56.64499 v 45.3237 H 90.30925 v -45.3237 m 274.85589,0 h 56.64499 v 45.3237 h -56.63215 v -45.3237 m -274.84306,64.5776 h 56.64499 v 45.28517 H 90.34776 v -45.28517 m 274.85589,0 h 56.64499 v 45.28517 H 365.21649 V 233.34072 M 90.37343,297.87981 h 56.64499 v 45.32368 H 90.38626 v -45.32368 m 274.8559,0 h 56.64497 v 45.32368 H 365.255 V 297.87981 M 90.41194,362.4574 h 56.64499 v 45.28519 H 90.42477 V 362.4574 m 274.8559,0 h 56.64497 v 45.28519 H 365.2935 V 362.4574"
     inkscape:connector-curvature="0"
     id="path3088"
     style="fill:#ffffff" />
</svg>

<?xml version="1.0" encoding="UTF-8" standalone="no"?>
<!-- Created with Inkscape (http://www.inkscape.org/) -->
<svg id="svg2" xmlns:rdf="http://www.w3.org/1999/02/22-rdf-syntax-ns#" xmlns="http://www.w3.org/2000/svg" height="100%" width="100%" version="1.1" xmlns:cc="http://creativecommons.org/ns#" xmlns:dc="http://purl.org/dc/elements/1.1/" viewBox="0 0 512 512">
 <metadata id="metadata10">
  <rdf:RDF>
   <cc:Work rdf:about="">
    <dc:format>image/svg+xml</dc:format>
    <dc:type rdf:resource="http://purl.org/dc/dcmitype/StillImage"/>
    <dc:title/>
   </cc:Work>
  </rdf:RDF>
 </metadata>
 <path id="rect2986" fill="#bc4242" d="m26 0c-14.397 0-26 11.603-26 26v460c0 14.397 11.603 26 26 26h460c14.397 0 26-11.603 26-26v-460c0-14.397-11.6-26-26-26h-460z"/>
 <text id="text20" style="word-spacing:0;letter-spacing:0" font-size="129.23px" line-height="125%" y="91.57193" x="-351.68549" font-family="Gentium Book Basic">
  <tspan id="tspan22" y="91.57193" x="-351.68549"/>
 </text>
 <text id="text24" style="text-anchor:middle" transform="scale(4.0128 .24920)" font-size="46.954px" y="18.313808" x="109.44035" font-family="Arial"/>
 <text id="text26" style="word-spacing:0;letter-spacing:0" font-size="129.23px" line-height="125%" y="11.57193" x="229.58453" font-family="Gentium Book Basic">
  <tspan id="tspan28" y="11.57193" x="229.58453"/>
 </text>
 <text id="text30" style="text-anchor:middle" transform="scale(4.0128 .24920)" font-size="46.954px" y="-302.72433" x="254.28963" font-family="Arial"/>
 <text id="text32" style="word-spacing:0;letter-spacing:0" font-size="129.23px" line-height="125%" y="-169.68805" x="-841.99548" font-family="Gentium Book Basic">
  <tspan id="tspan34" y="-169.68805" x="-841.99548"/>
 </text>
 <text id="text36" style="text-anchor:middle" transform="scale(4.0128 .24920)" font-size="46.954px" y="-1030.0707" x="-12.749008" font-family="Arial"/>
 <text id="text38" style="word-spacing:0;letter-spacing:0" font-size="129.23px" line-height="125%" y="-386.15805" x="256.0545" font-family="Gentium Book Basic">
  <tspan id="tspan40" y="-386.15805" x="256.0545"/>
 </text>
 <text id="text42" style="text-anchor:middle" transform="scale(4.0128 .24920)" font-size="46.954px" y="-1898.7463" x="260.88962" font-family="Arial"/>
 <text id="text44" style="word-spacing:0;letter-spacing:0" font-size="129.23px" line-height="125%" y="-466.15802" x="837.32452" font-family="Gentium Book Basic">
  <tspan id="tspan46" y="-466.15802" x="837.32452"/>
 </text>
 <text id="text48" style="text-anchor:middle" transform="scale(4.0128 .24920)" font-size="46.954px" y="-2219.7747" x="405.73886" font-family="Arial"/>
 <text id="text50" style="word-spacing:0;letter-spacing:0" font-size="129.23px" line-height="125%" y="-938.55804" x="448.20453" font-family="Gentium Book Basic">
  <tspan id="tspan52" y="-938.55804" x="448.20453"/>
 </text>
 <text id="text54" style="text-anchor:middle" transform="scale(4.0128 .24920)" font-size="46.954px" y="-4115.4248" x="308.76932" font-family="Arial"/>
 <text id="text56" style="word-spacing:0;letter-spacing:0" font-size="129.23px" line-height="125%" y="-1018.5681" x="1029.4646" font-family="Gentium Book Basic">
  <tspan id="tspan58" y="-1018.5681" x="1029.4646"/>
 </text>
 <text id="text60" style="text-anchor:middle" transform="scale(4.0128 .24920)" font-size="46.954px" y="-4436.4634" x="453.61862" font-family="Arial"/>
 <text id="text62" style="word-spacing:0;letter-spacing:0" font-size="208.33px" line-height="125%" y="396.15204" x="-803.33551" font-family="Gentium Book Basic">
  <tspan id="tspan64" y="396.15204" x="-803.33551"/>
 </text>
 <path id="path3331" opacity=".25" d="m95.633 67.268c-30.283 0-54.633 24.388-54.633 54.672v268.12c0 15.15 6.096 28.83 15.98 38.71l83.23 83.23h345.79c14.4 0 26-11.6 26-26v-345.76l-56.98-56.978c-9.88-9.883-23.55-15.981-38.69-15.981h-320.68l-0.017-0.013z"/>
 <path id="path3088" d="m95.634 67.268c-30.283 0-54.634 24.388-54.634 54.672v268.12c0 30.283 24.35 54.673 54.634 54.673h320.7c30.28 0 54.67-24.39 54.67-54.67v-268.11c0-30.278-24.39-54.669-54.67-54.669h-320.7m-5.3757 36.943h56.645v45.285h-56.629v-45.285m274.86 0h56.645v45.285h-56.64v-45.28m-274.84 64.54h56.645v45.324h-56.631v-45.324m274.86 0h56.645v45.324h-56.632v-45.324m-274.84 64.578h56.645v45.285h-56.652v-45.285m274.86 0h56.645v45.285h-56.64v-45.28m-274.85 64.54h56.645v45.324h-56.634v-45.324m274.86 0h56.645v45.324h-56.64v-45.32m-274.85 64.58h56.645v45.285h-56.635v-45.28m274.86 0h56.645v45.285h-56.63v-45.28" fill="#fff"/>
</svg>
